!!!!SEGMENT: pl-wn--mus-iii-105-719-1--016_zelenski-wladyslaw--25-preludyi-op-38-16-andante-sostenuto.krn
!!!cenid: 18xx:3749
!!!COM: Żeleński, Władysław
!!!COM-rismID: pe41024455
!!!CDT: 1837/07/06-1921/01/23
!!!CNT: Polish
!!!GTL: 25 preludyi op. 38
!!!OTL: 16. Andante sostenuto
!!!PDT: 1881
!!!AGN:
!!!SMS-siglum: PL-Wn
!!!SMS-shelfmark: Mus.III.105.719/1
!!!SMS-shelfwork: 016 G
!!!SMS-variant:
!!!SMS-altvar:
!!!NIFC-rismSourceID:
!!!NIFC-islandoraID:
!!!URL-pdf-islandora:
!!!URL-scan: https://polona.pl/item/25-preludyi-2-3-i-4-glosowych-na-organ-lub-fisharmonike-do-uzytku-organistow-i,ODE1NjEwMzc/2 @EN{Scan on Polona} @PL{Skany w portalu Polona}
!!!ONB-nifc:
!!!AIN: 2 organ
!!!key: d
**kern	**fing	**dynam	**kern	**fing	**dynam
*part2	*part2	*part2	*part1	*part1	*part1
*staff2	*	*	*staff1	*	*
*I"Organo	*	*	*I"Organo	*	*
*I'org	*	*	*I'org	*	*
*ICklav	*	*	*ICklav	*	*
*Iorgan	*	*	*Iorgan	*	*
*clefF4	*	*	*clefG2	*	*
*k[b-]	*	*	*k[b-]	*	*
*d:	*	*	*d:	*	*
*M4/4	*	*	*M4/4	*	*
*met(c)	*	*	*met(c)	*	*
=1	=1	=1	=1	=1	=1
*	*	*	*^	*	*
!	!	!	!LO:TX:a:i:t=1)	!	!	!
!	!	!	!LO:TX:a:B:t=Andante sostenuto.	!	!	!
(>2D/	.	.	(2d/	2d\	4	p
2DD/	.	.	2f/	2A\	2 5	.
=2	=2	=2	=2	=2	=2	=2
4GG/	.	.	4e/	4G\	1 5	.
4EE/	.	.	4d/	4B-\	2 4	.
2AA/)	3	.	4c#X/	4A\	1 3	.
.	.	.	4e/	4G\	1 5	.
=3	=3	=3	=3	=3	=3	=3
*^	*	*	*	*	*	*
(2F/	2BB-\	2 1	.	2d/	2d\	3	<
2ryy	2FF\	.	.	2a/	2c\	2 5	.
*v	*v	*	*	*	*	*	*
=4	=4	=4	=4	=4	=4	=4
1GG	.	.	4g/	2Bn\	1 5	.
.	.	.	4f/	.	4	.
.	.	.	4e/	2B-X\	2 5	.
.	.	.	4d/	.	4	.
=5	=5	=5	=5	=5	=5	=5
!	!	!	!LO:N:vis=4	!	!	!
4AA/)	.	.	8c#X/)	4A\	.	[ p
.	.	.	8r	.	.	.
4r	.	.	4r	4B-\	.	.
2r	.	.	2r	(4A\	.	<
.	.	.	.	4d\	.	.
=6	=6	=6	=6	=6	=6	=6
1r	.	.	1r	4c#X\)	.	.
.	.	.	.	([4f\	.	.
.	.	.	.	8f\L]	.	[ >
.	.	.	.	8e\	.	.
.	.	.	.	8d\	.	.
.	.	.	.	8B-\J	.	.
=7	=7	=7	=7	=7	=7	=7
!	!	!	!LO:TX:b:i:t=poco a poco	!	!	!
!	!	!	!	!	!	!
2r	.	.	1r	8A</L	.	] p <
.	.	.	.	8B-</	4	.
.	.	.	.	8A</	.	.
.	.	.	.	8G</J	.	.
(4D\	4	.	.	8F</L	.	.
.	.	.	.	8G</	.	.
4F\	2	.	.	8A</	.	.
.	.	.	.	8Bn</J	.	.
=8	=8	=8	=8	=8	=8	=8
4E\	3	.	1r	8c\L	5	.
.	.	.	.	8Bn\	1	.
4A\	1	.	.	8c\	.	.
.	.	.	.	8d\J	.	.
4G#X\)	2	.	.	4e\)	.	.
([4c\	1	.	.	8r	.	.
.	.	.	.	(>8e\	.	.
=9	=9	=9	=9	=9	=9	=9
8c\L]	.	.	1r	4.a\	3	.
8Bn\	2	.	.	.	.	.
8A\	1	.	.	.	.	.
8F\J	2	.	.	8bn\	.	.
8E\L	3	.	.	4cc\	.	.
8F\	2	.	.	.	.	.
8E\	1	.	.	4g#X\	2	.
8D\J	2	.	.	.	.	.
=10	=10	=10	=10	=10	=10	=10
8C#X/L	3	.	4a/	4.a\	.	.
8AA/	5	.	.	.	.	.
8D/	3	.	4b-X/	.	.	.
8E/J	2	.	.	[8gn\	.	.
8F\L	1	.	4a/	4g\]	.	.
8E\	4	.	.	.	.	.
8F\	3	.	4dd/	[4f\	.	.
8G\J	2	.	.	.	.	.
!LO:LB:g=original	!	!	!	!	!	!
=11	=11	=11	=11	=11	=11	=11
!	!	!	!	!	!	!
[2A\)	.	.	4cc#X/)	8f\L]	.	.
.	.	.	.	8e</	1	.
.	.	.	(>[4ff/	8d</	2 5	.
.	.	.	.	8Bn</J	4	>
8A\L]	1	.	8ff/L]	4c#X</	.	.
8G\	3	.	8ee/	.	.	.
8F\	4 1	.	8dd/	4d</	.	.
8D\J	5	.	8b-/J	.	.	.
=12	=12	=12	=12	=12	=12	=12
(4C#X\	3	.	8a/L	4e\	1 5	] p
.	.	.	8g/	.	4	.
[<4Cn\	4	.	8f#X/	4e-X\	2 3	.
.	.	.	8a/J	.	4	.
8C\L]	.	.	4dd/	4d\	1 5	.
8AA\	5	.	.	.	.	.
8BBn\	4	.	[4g/	[4fn\	2 3	.
8D\J)	2	.	.	.	.	.
=13	=13	=13	=13	=13	=13	=13
(4C\	1	.	4.g/])	8f\L]	.	.
.	.	.	.	8d\J	.	<
[<4BB-X\	2	.	.	4e\	.	.
!	!	!	!LO:TX:b:i:t=un poco	!	!	!
.	.	.	(8dd/	.	5	.
8BB-\L]	.	.	4cc/	[2e-X\	2 5	.
8GG\	.	.	.	.	.	.
8AA\	.	.	[4f/	.	3	.
8C\J	.	.	.	.	.	.
=14	=14	=14	=14	=14	=14	=14
4.BB-/	.	.	4.f/])	8e-\L]	.	.
.	.	.	.	8c\J	.	.
.	.	.	.	[4d\	2	.
8AA/	.	.	(8f/	.	3	.
4GG/	.	.	4b-/	8d\L]	.	.
.	.	.	.	8e-X\J	1	.
8AA/L	.	.	4a/	[4f\	2 4	.
8BB-/J	.	.	.	.	.	.
=15	=15	=15	=15	=15	=15	=15
4.C/	.	.	4g/	8f\L]	.	.
.	.	.	.	8d\	1	.
.	.	.	2cc/	8e\	2 5	.
8D\	2	.	.	8f#X\J	3	.
8E\L	1	.	.	8g\L	1	.
8F#X\	3	.	.	8a\J	2	.
8G\	2	.	8b-/L	4d\	1 4	.
8E\J	4	.	8g/J	.	5	.
=16	=16	=16	=16	=16	=16	=16
8A\L	1	.	4e/)	4c#X\	2 4	.
8B-\	2	.	.	.	.	.
8A\	1	.	(>8f/L	4ryy	2	p
8G\J	2	.	8g/J	.	.	.
8F\L	3	.	8a/L	(4d\	1 4	.
8E\J	1	.	8g/	.	3	.
4D\	.	.	8a/	4f\	2 4	.
.	.	.	8bn/J	.	5	.
=17	=17	=17	=17	=17	=17	=17
4AA/)	5	.	8cc/L	4e\)	1 4	.
.	.	.	8bn/	.	3	.
(4F\	.	.	8cc/	4a\	2 4	.
.	.	.	8dd/J	.	5	.
4E\	3	.	8ee/L	4g#X\	1 4	.
.	.	.	8dd/	.	3	.
4A\	1	.	8ee/	[4cc\	2 4	.
.	.	.	8ff#X/J)	.	5	.
!LO:LB:g=original	!	!	!	!	!	!
=18	=18	=18	=18	=18	=18	=18
4G\	4	.	4gg/	8cc\L]	5	>
.	.	.	.	8bn\	1	.
8A\L	.	.	8cc/L	8a\	2 3	.
8Bn\J	.	.	8dd/J	8f\J	1 4	.
8c\L	.	.	4ee/	[2e\	1 5	]
8A\	2	.	.	.	.	.
8F#X\	4	.	4dd/	.	4	.
8G#X\J	3	.	.	.	.	.
=19	=19	=19	=19	=19	=19	=19
!	!	!	!LO:TX:b:i:t=dolce	!	!	!
4A\	1	.	4cc/	8e\L]	5	.
.	.	.	.	8c\	.	.
4Gn\	2	.	4b-X/	8d\	2 4	.
.	.	.	.	8e\J	1	.
8F\L	1	.	4a/	4.f\	2 5	.
8D\	2	.	.	.	.	.
8BBn\	4	.	4g/	.	4	.
8C#X\J)	3	.	.	[8e\	1	.
=20	=20	=20	=20	=20	=20	=20
(8D/L	2	.	(4f/	8e\L]	3	<
8AA/J	5	.	.	8c#X\	2	.
4BB-/	4	.	2g/	8d\	1 4	.
.	.	.	.	8e\J	2	.
4BBn/	3	.	.	8f\L	3	.
.	.	.	.	8d\	1	.
4C/	1	.	[4a/	8e\	2 5	.
.	.	.	.	8f\J	3	.
=21	=21	=21	=21	=21	=21	=21
4C#X/	2	.	4a/]	8g\L	4	.
.	.	.	.	8e\	1	.
2D\	1	.	2b-/	8f\	2 4	.
.	.	.	.	8g\J	1	.
.	.	.	.	8a\L	3	.
.	.	.	.	8f#X\	2	.
4E-X\	3	.	[4cc/	8g\	1	.
.	.	.	.	8a\J	2	.
=22	=22	=22	=22	=22	=22	=22
4En\	2	.	4cc/]	8b-\L	3	.
.	.	.	.	8g\	1	.
4F\	1	.	2dd/	8a\	2 5	.
.	.	.	.	8b-\J	3	.
4F#X\	3	.	.	8cc\L	4	.
.	.	.	.	8a\	1	.
4G\	2	.	[4ee-X/	8b-\	2	.
.	.	.	.	8dd\J	3	.
=23	=23	=23	=23	=23	=23	=23
8A\L	1	.	2ee-/]	8cc\L	1	.
8B-\	3	.	.	8b-\	3	.
8c\	2	.	.	8a\	1	.
8A\J	4	.	.	8g\J	2	.
4d\)	1	.	4a/	8g\L	3	.
.	.	.	.	8en\J	1	.
4r	.	.	8dd/L	[4f#X\	2	.
.	.	.	8cc/J	.	.	.
=24	=24	=24	=24	=24	=24	=24
(>4GG/	4	.	4.b-/)	8f#\L]	.	mf
.	.	.	.	8a\J	1	.
4BB-/	2	.	.	[4g\	2	.
.	.	.	(8dd/	.	.	.
4AA/	3	.	4.cc/	8g\L]	.	.
.	.	.	.	8e\J	1	.
4D/	1	.	.	4fn\	2	.
.	.	.	8a/	.	.	.
=25	=25	=25	=25	=25	=25	=25
4C#X/)	4	.	8b-/L	4.e\	1 4	.
.	.	.	8g/J	.	2	.
([4F\	1	.	[4a/	.	5	.
.	.	.	.	8c#X\	2	.
8F\L]	.	.	8a/L]	[2d\	1	.
8E\	2	.	8g/	.	.	.
8D\	1	.	8f/	.	.	.
8BB-\J	2	.	8g/J	.	.	.
!LO:LB:g=original	!	!	!	!	!	!
=26	=26	=26	=26	=26	=26	=26
8AA/L	3	.	4a/	4d\]	.	.
8BB-/	2	.	.	.	.	.
8AA/	1	.	4e/	[<4c#	.	.
8GG/J	.	.	.	.	.	.
4FF/	.	.	4a/	8c#\L]	.	.
.	.	.	.	8A\	1	.
4EE/	.	.	4g/	8Bn\	1	.
.	.	.	.	8c#\J	.	.
=27	=27	=27	=27	=27	=27	=27
8DD/)	.	.	4f#X/)	4d\	.	pp
8r	.	.	.	.	.	.
4r	.	.	4r	(4e-X\	.	.
(4D\	4	.	2r	4d\	.	.
4E-X\	3	.	.	4g\	3	.
=28	=28	=28	=28	=28	=28	=28
4D\	4	.	1r	4f#X\)	.	<
4G\	1	.	.	[4b-\	.	.
4F#X\)	4	.	.	8b-\L]	.	[ >
.	.	.	.	8a\	.	.
([4B-\	2	.	.	8g\	.	.
.	.	.	.	8e-X\J	.	.
=29	=29	=29	=29	=29	=29	=29
8B-\L]	.	.	1r	8d\L	1	]
8A\	1	.	.	8c\	3	.
8G\	2	.	.	8B-\	2	.
8E\J	4	.	.	8c\J	3	.
4F\	1	.	.	(4A\	1	.
8E\L	2	.	.	4B-\	2	.
8D\J	3	.	.	.	.	.
=30	=30	=30	=30	=30	=30	=30
4C#X/)	4	.	(4a/	4A\	1 5	.
8r	.	.	4b-/	4d\	1 4	.
([8F\	2	.	.	.	.	.
8F\L]	.	.	4a/	4c#X\)	1 3	<
8E\	1	.	.	.	.	.
8D\	2	.	4dd/	[4f\	1 5	.
8BB-\J	4	.	.	.	.	.
=31	=31	=31	=31	=31	=31	=31
8AA\)	5	.	4cc#X/)	8f\L]	.	.
8r	.	.	.	8e\	1	.
4r	.	.	[(4ff/	8d\	2 5	.
.	.	.	.	8B-\J	4	.
4r	1	.	8ff/L]	8A</L	.	.
.	2	.	8ee/	8G</	.	.
([4D\	3	.	8dd/	8F</	.	.
.	2	.	8b-/J	8G</J	.	[
=32	=32	=32	=32	=32	=32	=32
8D\L]	1	.	4a/	[2A</	1	>
8BBn\	5	.	.	.	.	.
8C#X\	4	.	4g/	.	4	.
8E\J	2	.	.	.	.	.
8D\L	3	.	4f/	8A</]	3	.
8FF\	5	.	.	4d\	1	.
8GG\	3	.	4e/)	.	4	.
8AA\J)	2	.	.	8c#X\	2	]]
=33	=33	=33	=33	=33	=33	=33
!	!	!	!LO:TX:t=P:problem= błąd wyświetlania - dźwięki 2d zapisane osobno	!	!	!
[1DD	.	.	(2d/	2d\	3	p
.	.	.	2f/ 2A/	2A/yy	2 5	.
=34	=34	=34	=34	=34	=34	=34
1DD_	.	.	4e/ 4G	4G/yy	.	.
.	.	.	4d/ 4B-	4B-/yy	.	.
.	.	.	4c#X/ 4A	4A/yy	.	.
.	.	.	4e/	[4G\	.	.
=35	=35	=35	=35	=35	=35	=35
1DD_	.	.	2.A/	4G\]	3	.
.	.	.	.	4E</	1	.
.	.	.	.	2F#X</	2	<
.	.	.	4c/	.	5	.
=36	=36	=36	=36	=36	=36	=36
!	!	!	!LO:TX:b:i:t=poco riten.	!	!	!
1DD_	.	.	4.Bn/	4A</	3 4	.
.	.	.	.	2G</	1	.
.	.	.	8c#X/	.	3	.
.	.	.	4d/	.	5	[
.	.	.	4e/	4B-X</	2 4	.
=37	=37	=37	=37	=37	=37	=37
1DD]	.	.	1f#X)	1A<	5	pp >]
*	*	*	*v	*v	*	*
==	==	==	==	==	==
*-	*-	*-	*-	*-	*-
!!!system-decoration: {(s1,s2)}
!!!RDF**kern: > = above
!!!RDF**kern: < = below
!!!ENC: Filip Voros
!!!END: 2022-03-11
!!!ENC: Jan Barakat
!!!END: 2022-03-16
